img/real-time.svg

<svg width="80" height="80" viewBox="0 0 80 80" fill="none" xmlns="http://www.w3.org/2000/svg">
<path d="M53.5656 18.2315L53.2125 18.5854V18.5854L53.5656 18.2315ZM56.8809 21.5395L56.5277 21.8935L56.5277 21.8935L56.8809 21.5395ZM56.881 22.2473L57.2342 22.6012L56.881 22.2473ZM34.2271 44.8625L33.8739 44.5087L34.2271 44.8625ZM30.2069 44.8625L29.826 44.5386C29.6573 44.737 29.6691 45.0316 29.8531 45.2159L30.2069 44.8625ZM20.1454 34.8183L20.4987 34.4644L20.4987 34.4644L20.1454 34.8183ZM30.2063 44.8619L29.853 45.2158C29.9518 45.3144 30.0872 45.3672 30.2266 45.3615C30.366 45.3558 30.4967 45.2922 30.5871 45.1859L30.2063 44.8619ZM20.1454 34.1106L20.4987 34.4644L20.4987 34.4644L20.1454 34.1106ZM23.4592 30.8025L23.1059 30.4486L23.4592 30.8025ZM24.1657 30.8025L24.5189 30.4486L24.1657 30.8025ZM32.2162 38.8393L31.863 39.1932C32.0582 39.388 32.3743 39.388 32.5695 39.1932L32.2162 38.8393ZM32.5695 39.8997L32.2162 39.5458H32.2162L32.5695 39.8997ZM53.2125 19.2918L53.5657 18.9379C53.3705 18.7431 53.0545 18.7432 52.8593 18.938L53.2125 19.2918ZM31.863 39.8997L32.2162 39.5458H32.2162L31.863 39.8997ZM23.8124 31.8629L24.1657 31.509C23.9705 31.3141 23.6544 31.3141 23.4592 31.509L23.8124 31.8629ZM21.2064 34.4644L20.8532 34.1106C20.7592 34.2043 20.7064 34.3317 20.7064 34.4644C20.7064 34.5972 20.7592 34.7245 20.8532 34.8183L21.2064 34.4644ZM30.9134 44.1548L30.5601 44.5087L30.5604 44.5089L30.9134 44.1548ZM30.914 44.1554L31.2679 43.8022L31.267 43.8013L30.914 44.1554ZM33.5206 44.1548L33.1674 43.801L33.5206 44.1548ZM55.8199 21.8936L56.1732 22.2474C56.2672 22.1536 56.32 22.0263 56.3199 21.8935C56.3199 21.7607 56.2671 21.6334 56.1731 21.5396L55.8199 21.8936ZM50.3942 21.4561L50.7616 21.1169L50.7616 21.1169L50.3942 21.4561ZM50.4253 21.4932L50.8238 21.1911L50.8237 21.1911L50.4253 21.4932ZM53.2688 25.2442L53.6672 24.9422L53.6672 24.9421L53.2688 25.2442ZM53.2962 25.2844L53.7222 25.0225L53.7221 25.0224L53.2962 25.2844ZM52.4571 25.8288L52.8833 25.5673C52.8747 25.5533 52.8654 25.5398 52.8555 25.5267L52.4571 25.8288ZM49.6431 22.1167L50.0416 21.8146C50.0317 21.8016 50.0212 21.7891 50.0102 21.7772L49.6431 22.1167ZM47.0631 24.7532L47.4333 24.4172L47.4333 24.4172L47.0631 24.7532ZM47.1011 24.8006L46.6928 25.0892L46.6928 25.0892L47.1011 24.8006ZM49.8446 28.6811L49.4363 28.9697L49.4363 28.9697L49.8446 28.6811ZM49.8767 28.733L50.3172 28.4964V28.4964L49.8767 28.733ZM49.0102 29.2332L49.451 28.9972C49.4413 28.979 49.4304 28.9614 49.4185 28.9445L49.0102 29.2332ZM46.3023 25.4029L46.7105 25.1143C46.6987 25.0975 46.6858 25.0815 46.672 25.0663L46.3023 25.4029ZM33.9974 21.7983C33.9974 21.2461 33.5497 20.7983 32.9974 20.7983V21.7983H33.9974ZM33.9974 23.358V21.7983H32.9974V23.358H33.9974ZM32.9974 24.358C33.5497 24.358 33.9974 23.9103 33.9974 23.358H32.9974V23.358V24.358ZM31.9974 23.358C31.9974 23.9103 32.4451 24.358 32.9974 24.358V23.358V23.358H31.9974ZM31.9974 21.7983V23.358H32.9974V21.7983H31.9974ZM32.9974 20.7983C32.4451 20.7983 31.9974 21.2461 31.9974 21.7983H32.9974V20.7983ZM33.9974 52.9917C33.9974 52.4394 33.5497 51.9917 32.9974 51.9917V52.9917H33.9974ZM33.9974 54.5514V52.9917H32.9974V54.5514H33.9974ZM32.9974 55.5514C33.5497 55.5514 33.9974 55.1037 33.9974 54.5514H32.9974V55.5514ZM31.9974 54.5514C31.9974 55.1037 32.4451 55.5514 32.9974 55.5514V54.5514H31.9974ZM31.9974 52.9917V54.5514H32.9974V52.9917H31.9974ZM32.9974 51.9917C32.4451 51.9917 31.9974 52.4394 31.9974 52.9917H32.9974V51.9917ZM47.0584 37.9547C46.5061 37.9547 46.0584 38.4024 46.0584 38.9547H47.0584V37.9547ZM48.6208 37.9547H47.0584V38.9547H48.6208V37.9547ZM49.6208 38.9547C49.6208 38.4024 49.173 37.9547 48.6208 37.9547V38.9547H49.6208ZM48.6208 39.9547C49.173 39.9547 49.6208 39.507 49.6208 38.9547H48.6208V39.9547ZM47.0584 39.9547H48.6208V38.9547H47.0584V39.9547ZM46.0584 38.9547C46.0584 39.507 46.5061 39.9547 47.0584 39.9547V38.9547H46.0584ZM15.8117 37.9547C15.2594 37.9547 14.8117 38.4024 14.8117 38.9547H15.8117V37.9547ZM17.374 37.9547H15.8117V38.9547H17.374V37.9547ZM18.374 38.9547C18.374 38.4024 17.9263 37.9547 17.374 37.9547V38.9547H18.374ZM17.374 39.9547C17.9263 39.9547 18.374 39.507 18.374 38.9547H17.374V39.9547ZM15.8117 39.9547H17.374V38.9547H15.8117V39.9547ZM14.8117 38.9547C14.8117 39.507 15.2594 39.9547 15.8117 39.9547V38.9547H14.8117ZM53.9188 17.8775C53.5284 17.488 52.8963 17.4881 52.506 17.8777L53.2125 18.5854L53.9188 17.8775ZM57.2341 21.1856L53.9188 17.8775L53.2125 18.5854L56.5277 21.8935L57.2341 21.1856ZM57.5277 21.8934C57.5277 21.6278 57.4221 21.3732 57.2341 21.1856L56.5277 21.8935L56.5277 21.8935L57.5277 21.8934ZM57.2342 22.6012C57.4222 22.4136 57.5278 22.1589 57.5277 21.8934L56.5277 21.8935L56.5277 21.8935L57.2342 22.6012ZM34.5804 45.2164L57.2342 22.6012L56.5277 21.8935L33.8739 44.5087L34.5804 45.2164ZM32.2162 46.1934C33.0691 46.1934 33.9268 45.8689 34.5804 45.2164L33.8739 44.5087C33.4161 44.9656 32.8162 45.1934 32.2162 45.1934V46.1934ZM29.8531 45.2159C30.5058 45.8693 31.364 46.1934 32.2162 46.1934V45.1934C31.6164 45.1934 31.0167 44.9658 30.5606 44.5092L29.8531 45.2159ZM30.5877 45.1865L53.2401 18.5555L52.4783 17.9076L29.826 44.5386L30.5877 45.1865ZM19.7922 35.1721L29.853 45.2158L30.5595 44.5081L20.4987 34.4644L19.7922 35.1721ZM19.4987 34.4644C19.4987 34.7299 19.6043 34.9845 19.7922 35.1721L20.4987 34.4644L20.4987 34.4644H19.4987ZM19.7922 33.7567C19.6043 33.9443 19.4987 34.1989 19.4987 34.4644H20.4987L20.4987 34.4644L19.7922 33.7567ZM23.1059 30.4486L19.7922 33.7567L20.4987 34.4644L23.8124 31.1564L23.1059 30.4486ZM24.5189 30.4486C24.1285 30.0589 23.4963 30.0589 23.1059 30.4486L23.8124 31.1564L24.5189 30.4486ZM32.5695 38.4855L24.5189 30.4486L23.8124 31.1564L31.863 39.1932L32.5695 38.4855ZM52.506 17.8777L31.863 38.4855L32.5695 39.1932L53.2125 18.5854L52.506 17.8777ZM52.4784 17.9076L29.8254 44.538L30.5871 45.1859L53.2401 18.5555L52.4784 17.9076ZM32.9227 40.2535L53.5658 19.6457L52.8593 18.938L32.2162 39.5458L32.9227 40.2535ZM31.5097 40.2535C31.9001 40.6432 32.5323 40.6432 32.9227 40.2535L32.2162 39.5458H32.2162L31.5097 40.2535ZM23.4592 32.2167L31.5097 40.2535L32.2162 39.5458L24.1657 31.509L23.4592 32.2167ZM21.5597 34.8183L24.1657 32.2167L23.4592 31.509L20.8532 34.1106L21.5597 34.8183ZM31.2666 43.801L21.5597 34.1106L20.8532 34.8183L30.5601 44.5087L31.2666 43.801ZM31.267 43.8013L31.2664 43.8007L30.5604 44.5089L30.561 44.5095L31.267 43.8013ZM32.2162 44.1934C31.8691 44.1934 31.5277 44.0624 31.2679 43.8022L30.5601 44.5087C31.0163 44.9656 31.6162 45.1934 32.2162 45.1934V44.1934ZM33.1674 43.801C32.9053 44.0626 32.5631 44.1934 32.2162 44.1934V45.1934C32.8163 45.1934 33.4162 44.9656 33.8739 44.5087L33.1674 43.801ZM55.4667 21.5397L33.1674 43.801L33.8739 44.5087L56.1732 22.2474L55.4667 21.5397ZM52.8594 19.6458L55.4668 22.2475L56.1731 21.5396L53.5657 18.9379L52.8594 19.6458ZM32.2162 13C18.2919 13 7 24.2702 7 38.1749H8C8 24.8241 18.8426 14 32.2162 14V13ZM50.7616 21.1169C46.1555 16.1273 39.5511 13 32.2162 13V14C39.2608 14 45.6023 17.0024 50.0269 21.7952L50.7616 21.1169ZM50.8237 21.1911C50.8043 21.1654 50.7836 21.1407 50.7616 21.1169L50.0268 21.7952L50.0269 21.7953L50.8237 21.1911ZM53.6672 24.9421L50.8238 21.1911L50.0269 21.7952L52.8703 25.5462L53.6672 24.9421ZM53.7221 25.0224C53.7052 24.9948 53.6869 24.968 53.6672 24.9422L52.8703 25.5462L52.8703 25.5463L53.7221 25.0224ZM57.4324 38.1749C57.4324 33.3556 56.0754 28.85 53.7222 25.0225L52.8703 25.5462C55.1294 29.2208 56.4324 33.5458 56.4324 38.1749H57.4324ZM32.2162 63.3497C46.1405 63.3497 57.4324 52.0795 57.4324 38.1749H56.4324C56.4324 51.5256 45.5898 62.3497 32.2162 62.3497V63.3497ZM7 38.1749C7 52.0795 18.2919 63.3497 32.2162 63.3497V62.3497C18.8426 62.3497 8 51.5256 8 38.1749H7ZM9 38.1749C9 25.378 19.3933 15 32.2162 15V14C18.8426 14 8 24.8241 8 38.1749H9ZM32.2162 61.3497C19.3933 61.3497 9 50.9717 9 38.1749H8C8 51.5256 18.8426 62.3497 32.2162 62.3497V61.3497ZM55.4324 38.1749C55.4324 50.9717 45.0391 61.3497 32.2162 61.3497V62.3497C45.5898 62.3497 56.4324 51.5256 56.4324 38.1749H55.4324ZM52.0308 26.0902C54.1883 29.6074 55.4324 33.7445 55.4324 38.1749H56.4324C56.4324 33.5546 55.1344 29.2374 52.8833 25.5673L52.0308 26.0902ZM49.2446 22.4187L52.0586 26.1308L52.8555 25.5267L50.0416 21.8146L49.2446 22.4187ZM32.2162 15C38.9621 15 45.0338 17.8702 49.2761 22.4562L50.0102 21.7772C45.5864 16.9948 39.2519 14 32.2162 14V15ZM32.2162 17.679C20.8792 17.679 11.687 26.853 11.687 38.1749H12.687C12.687 27.4069 21.4298 18.679 32.2162 18.679V17.679ZM47.4333 24.4172C43.6785 20.2803 38.2497 17.679 32.2162 17.679V18.679C37.9562 18.679 43.1198 21.1526 46.6928 25.0892L47.4333 24.4172ZM47.5094 24.512C47.486 24.4788 47.4605 24.4472 47.4333 24.4172L46.6928 25.0892L46.6928 25.0892L47.5094 24.512ZM50.2528 28.3924L47.5094 24.512L46.6928 25.0892L49.4363 28.9697L50.2528 28.3924ZM50.3172 28.4964C50.2979 28.4604 50.2764 28.4257 50.2528 28.3924L49.4363 28.9697V28.9697L50.3172 28.4964ZM52.7454 38.1749C52.7454 34.6756 51.8667 31.3801 50.3172 28.4964L49.4363 28.9697C50.9096 31.7116 51.7454 34.845 51.7454 38.1749H52.7454ZM32.2162 58.6707C43.5533 58.6707 52.7454 49.4967 52.7454 38.1749H51.7454C51.7454 48.9428 43.0026 57.6707 32.2162 57.6707V58.6707ZM11.687 38.1749C11.687 49.4967 20.8792 58.6707 32.2162 58.6707V57.6707C21.4298 57.6707 12.687 48.9428 12.687 38.1749H11.687ZM13.687 38.1749C13.687 27.9608 21.9805 19.679 32.2162 19.679V18.679C21.4298 18.679 12.687 27.4069 12.687 38.1749H13.687ZM32.2162 56.6707C21.9805 56.6707 13.687 48.3889 13.687 38.1749H12.687C12.687 48.9428 21.4298 57.6707 32.2162 57.6707V56.6707ZM50.7454 38.1749C50.7454 48.3889 42.4519 56.6707 32.2162 56.6707V57.6707C43.0026 57.6707 51.7454 48.9428 51.7454 38.1749H50.7454ZM48.5694 29.4691C49.9578 32.063 50.7454 35.0249 50.7454 38.1749H51.7454C51.7454 34.8561 50.9152 31.7326 49.451 28.9972L48.5694 29.4691ZM45.894 25.6916L48.6019 29.5218L49.4185 28.9445L46.7105 25.1143L45.894 25.6916ZM32.2162 19.679C37.6522 19.679 42.542 22.0158 45.9326 25.7395L46.672 25.0663C43.0997 21.143 37.9451 18.679 32.2162 18.679V19.679Z" fill="#62E0D9"/>
<path fill-rule="evenodd" clip-rule="evenodd" d="M49.5135 44.2186C49.5135 46.1267 47.9637 47.6721 46.0541 47.6721C44.1444 47.6721 42.5946 46.1267 42.5946 44.2186C42.5946 42.3105 44.1444 40.765 46.0541 40.765C47.9637 40.765 49.5135 42.3105 49.5135 44.2186Z" stroke="#62E0D9" stroke-linejoin="round"/>
<path fill-rule="evenodd" clip-rule="evenodd" d="M46.0541 47.6721C44.5942 47.6721 43.2752 48.1211 42.3317 48.5597C41.4288 48.9819 40.8649 49.8988 40.8649 50.8934V56.306C40.8649 57.2592 41.6398 58.0328 42.5946 58.0328V64.9399C42.5946 65.8931 43.3687 66.6667 44.3243 66.6667H47.7838C48.7395 66.6667 49.5135 65.8931 49.5135 64.9399V58.0328C50.4683 58.0328 51.2432 57.2592 51.2432 56.306V50.8934C51.2432 49.8988 50.6794 48.9819 49.7764 48.5597C48.8329 48.1211 47.5139 47.6721 46.0541 47.6721Z" stroke="#62E0D9" stroke-linecap="round" stroke-linejoin="round"/>
<path fill-rule="evenodd" clip-rule="evenodd" d="M59.8919 44.2186C59.8919 46.1267 58.343 47.6721 56.4325 47.6721C54.522 47.6721 52.973 46.1267 52.973 44.2186C52.973 42.3105 54.522 40.765 56.4325 40.765C58.343 40.765 59.8919 42.3105 59.8919 44.2186Z" stroke="#62E0D9" stroke-linejoin="round"/>
<path fill-rule="evenodd" clip-rule="evenodd" d="M56.4325 47.6721C54.9726 47.6721 53.6537 48.1211 52.7101 48.5597C51.8072 48.9819 51.2433 49.8988 51.2433 50.8934V56.306C51.2433 57.2592 52.0173 58.0328 52.973 58.0328V64.9399C52.973 65.8931 53.7479 66.6667 54.7027 66.6667H58.1622C59.1179 66.6667 59.8919 65.8931 59.8919 64.9399V58.0328C60.8476 58.0328 61.6217 57.2592 61.6217 56.306V50.8934C61.6217 49.8988 61.0578 48.9819 60.1549 48.5597C59.2113 48.1211 57.8924 47.6721 56.4325 47.6721Z" stroke="#62E0D9" stroke-linecap="round" stroke-linejoin="round"/>
<path fill-rule="evenodd" clip-rule="evenodd" d="M70.2702 44.2186C70.2702 46.1267 68.7213 47.6721 66.8108 47.6721C64.9003 47.6721 63.3513 46.1267 63.3513 44.2186C63.3513 42.3105 64.9003 40.765 66.8108 40.765C68.7213 40.765 70.2702 42.3105 70.2702 44.2186Z" stroke="#62E0D9" stroke-linejoin="round"/>
<path fill-rule="evenodd" clip-rule="evenodd" d="M66.8108 47.6721C65.3509 47.6721 64.032 48.1211 63.0884 48.5597C62.1855 48.9819 61.6216 49.8988 61.6216 50.8934V56.306C61.6216 57.2592 62.3956 58.0328 63.3513 58.0328V64.9399C63.3513 65.8931 64.1262 66.6667 65.081 66.6667H68.5405C69.4962 66.6667 70.2702 65.8931 70.2702 64.9399V58.0328C71.2259 58.0328 72 57.2592 72 56.306V50.8934C72 49.8988 71.4361 48.9819 70.5331 48.5597C69.5896 48.1211 68.2707 47.6721 66.8108 47.6721Z" stroke="#62E0D9" stroke-linecap="round" stroke-linejoin="round"/>
</svg>

<svg width="80" height="80" fill="none" xmlns="http://www.w3.org/2000/svg"><path d="M53.566 18.232l-.354.353.354-.354zm3.315 3.308l-.353.354.353-.354zm0 .707l.353.354-.353-.354zM34.227 44.862l-.353-.353.353.353zm-4.02 0l-.381-.323a.5.5 0 00.027.677l.354-.354zM20.145 34.819l.354-.354-.354.354zm10.061 10.044l-.353.354a.5.5 0 00.734-.03l-.38-.324zM20.146 34.11l.353.353-.354-.353zm3.313-3.308l-.353-.354.353.353zm.707 0l.353-.354-.353.353zm8.05 8.036l-.353.354a.5.5 0 00.706 0l-.353-.354zm.353 1.06l-.353-.353.353.354zm20.643-20.607l.354-.354a.5.5 0 00-.707 0l.353.354zM31.863 39.9l.353-.354-.353.354zm-8.05-8.037l.353-.354a.5.5 0 00-.707 0l.353.354zm-2.607 2.601l-.353-.353a.5.5 0 000 .707l.353-.354zm9.707 9.69l-.353.355.353-.354zm.001.001l.354-.353h-.001l-.353.353zm2.607 0l-.354-.354.354.354zM55.82 21.894l.353.353a.5.5 0 000-.707l-.353.354zm-5.426-.438l.368-.34-.368.34zm.031.037l.399-.302-.399.302zm2.844 3.751l.398-.302-.398.302zm.027.04l.426-.261-.426.261zm-.839.545l.426-.262a.51.51 0 00-.028-.04l-.398.302zm-2.814-3.712l.399-.302a.513.513 0 00-.032-.038l-.367.34zm-2.58 2.636l.37-.336-.37.336zm.038.048l-.408.288.408-.288zm2.744 3.88l-.409.289.409-.289zm.032.052l.44-.237-.44.237zm-.867.5l.441-.236a.5.5 0 00-.032-.052l-.409.288zm-2.708-3.83l.409-.289a.493.493 0 00-.039-.048l-.37.337zm-12.305-3.605a1 1 0 00-1-1v1h1zm0 1.56v-1.56h-1v1.56h1zm-1 1a1 1 0 001-1h-1v1zm-1-1a1 1 0 001 1v-1h-1zm0-1.56v1.56h1v-1.56h-1zm1-1a1 1 0 00-1 1h1v-1zm1 32.194a1 1 0 00-1-1v1h1zm0 1.56v-1.56h-1v1.56h1zm-1 1a1 1 0 001-1h-1v1zm-1-1a1 1 0 001 1v-1h-1zm0-1.56v1.56h1v-1.56h-1zm1-1a1 1 0 00-1 1h1v-1zm14.061-14.037a1 1 0 00-1 1h1v-1zm1.563 0h-1.563v1h1.563v-1zm1 1a1 1 0 00-1-1v1h1zm-1 1a1 1 0 001-1h-1v1zm-1.563 0h1.563v-1h-1.563v1zm-1-1a1 1 0 001 1v-1h-1zm-30.246-1a1 1 0 00-1 1h1v-1zm1.562 0h-1.562v1h1.562v-1zm1 1a1 1 0 00-1-1v1h1zm-1 1a1 1 0 001-1h-1v1zm-1.562 0h1.562v-1h-1.562v1zm-1-1a1 1 0 001 1v-1h-1zm39.107-21.077a1 1 0 00-1.413 0l.706.707.707-.707zm3.315 3.308l-3.315-3.308-.706.707 3.315 3.308.706-.707zm.294.707a1 1 0 00-.294-.707l-.706.707h1zm-.294.708a1 1 0 00.294-.708h-1l.706.708zM34.58 45.216l22.654-22.615-.706-.707-22.654 22.615.706.707zm-2.364.977c.853 0 1.71-.324 2.364-.977l-.706-.707a2.339 2.339 0 01-1.658.684v1zm-2.363-.977c.653.653 1.511.977 2.363.977v-1c-.6 0-1.2-.227-1.655-.684l-.708.707zm.735-.03l22.652-26.63-.762-.648-22.652 26.63.762.649zM19.792 35.172l10.061 10.044.706-.708L20.5 34.464l-.707.708zm-.293-.708a1 1 0 00.293.708l.707-.708h-1zm.293-.707a1 1 0 00-.293.707h1l-.707-.707zm3.314-3.308l-3.314 3.308.707.707 3.313-3.308-.706-.707zm1.413 0a1 1 0 00-1.413 0l.706.707.707-.707zm8.05 8.037l-8.05-8.037-.707.707 8.051 8.037.706-.707zm19.937-20.608L31.863 38.486l.706.707 20.643-20.608-.706-.707zm-.028.03l-22.653 26.63.762.648 22.653-26.63-.762-.648zM32.923 40.254l20.643-20.608-.707-.708-20.643 20.608.707.708zm-1.413 0a1 1 0 001.413 0l-.707-.708-.706.708zm-8.05-8.037l8.05 8.037.706-.708-8.05-8.037-.707.708zm-1.9 2.601l2.606-2.601-.707-.708-2.606 2.602.707.707zm9.707 8.983l-9.707-9.69-.707.707 9.707 9.69.707-.707zm0 0l-.707.708h.001l.706-.708zm.95.392c-.348 0-.69-.13-.95-.39l-.707.706a2.332 2.332 0 001.656.684v-1zm.95-.392a1.338 1.338 0 01-.95.392v1c.6 0 1.2-.227 1.657-.684l-.707-.708zm22.3-22.261L33.167 43.8l.707.708 22.3-22.262-.707-.707zm-2.608-1.894l2.608 2.601.706-.707-2.607-2.602-.707.708zM32.216 13C18.292 13 7 24.27 7 38.175h1C8 24.825 18.843 14 32.216 14v-1zm18.546 8.117A25.168 25.168 0 0032.216 13v1a24.169 24.169 0 0117.81 7.795l.736-.678zm.062.074a.972.972 0 00-.062-.074l-.735.678.797-.604zm2.843 3.751l-2.843-3.75-.797.603 2.843 3.751.797-.604zm.055.08a.947.947 0 00-.055-.08l-.797.604.852-.524zm3.71 13.153c0-4.82-1.357-9.325-3.71-13.152l-.852.523c2.26 3.675 3.562 8 3.562 12.629h1zM32.216 63.35c13.925 0 25.216-11.27 25.216-25.175h-1c0 13.35-10.842 24.175-24.216 24.175v1zM7 38.175C7 52.08 18.292 63.35 32.216 63.35v-1C18.843 62.35 8 51.526 8 38.175H7zm2 0C9 25.378 19.393 15 32.216 15v-1C18.843 14 8 24.824 8 38.175h1zM32.216 61.35C19.393 61.35 9 50.972 9 38.175H8C8 51.525 18.843 62.35 32.216 62.35v-1zm23.216-23.175c0 12.797-10.393 23.175-23.216 23.175v1c13.374 0 24.216-10.824 24.216-24.175h-1zM52.031 26.09a23.033 23.033 0 013.401 12.085h1c0-4.62-1.298-8.938-3.549-12.608l-.852.523zm-2.786-3.671l2.814 3.712.797-.604-2.814-3.712-.797.604zM32.216 15c6.746 0 12.818 2.87 17.06 7.456l.734-.679A24.168 24.168 0 0032.216 14v1zm0 2.679c-11.337 0-20.529 9.174-20.529 20.496h1c0-10.768 8.743-19.496 19.53-19.496v-1zm15.217 6.738a20.497 20.497 0 00-15.217-6.738v1c5.74 0 10.904 2.474 14.477 6.41l.74-.672zm.076.095a.993.993 0 00-.076-.095l-.74.672.816-.577zm2.744 3.88l-2.744-3.88-.816.577 2.743 3.88.817-.577zm.064.104a.983.983 0 00-.064-.104l-.817.578.881-.474zm2.428 9.679c0-3.5-.878-6.795-2.428-9.679l-.88.474a19.387 19.387 0 012.308 9.205h1zM32.216 58.67c11.337 0 20.53-9.174 20.53-20.496h-1c0 10.768-8.743 19.496-19.53 19.496v1zM11.687 38.175c0 11.322 9.192 20.496 20.53 20.496v-1c-10.787 0-19.53-8.728-19.53-19.496h-1zm2 0c0-10.214 8.293-18.496 18.53-18.496v-1c-10.787 0-19.53 8.728-19.53 19.496h1zm18.53 18.496c-10.236 0-18.53-8.282-18.53-18.496h-1c0 10.768 8.743 19.496 19.53 19.496v-1zm18.528-18.496c0 10.214-8.293 18.496-18.529 18.496v1c10.787 0 19.53-8.728 19.53-19.496h-1zm-2.176-8.706a18.387 18.387 0 012.176 8.706h1c0-3.319-.83-6.442-2.294-9.178l-.882.472zm-2.675-3.777l2.708 3.83.817-.577-2.708-3.83-.817.577zm-13.678-6.013a18.497 18.497 0 0113.717 6.06l.739-.673a19.497 19.497 0 00-14.456-6.387v1z" fill="#62E0D9"/><path clip-rule="evenodd" d="M49.514 44.219a3.457 3.457 0 01-3.46 3.453 3.457 3.457 0 01-3.46-3.453 3.457 3.457 0 013.46-3.454c1.91 0 3.46 1.545 3.46 3.454z" stroke="#62E0D9" stroke-linejoin="round"/><path clip-rule="evenodd" d="M46.054 47.672c-1.46 0-2.779.45-3.722.888a2.57 2.57 0 00-1.467 2.333v5.413c0 .953.775 1.727 1.73 1.727v6.907c0 .953.774 1.727 1.73 1.727h3.459c.956 0 1.73-.774 1.73-1.727v-6.907c.954 0 1.73-.774 1.73-1.727v-5.413a2.57 2.57 0 00-1.468-2.333c-.943-.439-2.262-.888-3.722-.888z" stroke="#62E0D9" stroke-linecap="round" stroke-linejoin="round"/><path clip-rule="evenodd" d="M59.892 44.219a3.456 3.456 0 01-3.46 3.453 3.456 3.456 0 01-3.459-3.453 3.456 3.456 0 013.46-3.454c1.91 0 3.459 1.545 3.459 3.454z" stroke="#62E0D9" stroke-linejoin="round"/><path clip-rule="evenodd" d="M56.432 47.672c-1.46 0-2.778.45-3.722.888a2.57 2.57 0 00-1.467 2.333v5.413c0 .953.774 1.727 1.73 1.727v6.907c0 .953.775 1.727 1.73 1.727h3.46c.955 0 1.729-.774 1.729-1.727v-6.907c.956 0 1.73-.774 1.73-1.727v-5.413a2.57 2.57 0 00-1.467-2.333c-.944-.439-2.263-.888-3.723-.888z" stroke="#62E0D9" stroke-linecap="round" stroke-linejoin="round"/><path clip-rule="evenodd" d="M70.27 44.219a3.456 3.456 0 01-3.46 3.453 3.456 3.456 0 01-3.459-3.453 3.456 3.456 0 013.46-3.454c1.91 0 3.46 1.545 3.46 3.454z" stroke="#62E0D9" stroke-linejoin="round"/><path clip-rule="evenodd" d="M66.81 47.672c-1.46 0-2.778.45-3.722.888a2.57 2.57 0 00-1.466 2.333v5.413c0 .953.774 1.727 1.73 1.727v6.907c0 .953.774 1.727 1.729 1.727h3.46c.955 0 1.73-.774 1.73-1.727v-6.907c.955 0 1.729-.774 1.729-1.727v-5.413a2.57 2.57 0 00-1.467-2.333c-.943-.439-2.262-.888-3.722-.888z" stroke="#62E0D9" stroke-linecap="round" stroke-linejoin="round"/></svg>
